icon/pk/message-security.svg

<svg width="48" height="48" fill="none" xmlns="http://www.w3.org/2000/svg"><path d="M25.5 37H21l-10 5v-5H4V7h40v11" stroke="#000" stroke-width="4" stroke-linecap="round" stroke-linejoin="round"/><path d="M29 25.2c0-1.067 7-3.2 7-3.2s7 2.133 7 3.2c0 8.533-7 12.8-7 12.8s-7-4.267-7-12.8Z" fill="#2F88FF" stroke="#000" stroke-width="4" stroke-linecap="round" stroke-linejoin="round"/><path d="M12 15h6M12 21h12" stroke="#000" stroke-width="4" stroke-linecap="round" stroke-linejoin="round"/></svg>

<svg viewBox="0 0 48 48" fill="none" xmlns="http://www.w3.org/2000/svg" height="1em" width="1em">
  <path d="M25.5 37H21L11 42V37H4V7H44V18" stroke="black" stroke-width="4" stroke-linecap="round" stroke-linejoin="round"/>
  <path d="M29 25.2C29 24.1333 36 22 36 22C36 22 43 24.1333 43 25.2C43 33.7333 36 38 36 38C36 38 29 33.7333 29 25.2Z" fill="#2F88FF" stroke="black" stroke-width="4" stroke-linecap="round" stroke-linejoin="round"/>
  <path d="M12 15H15L18 15" stroke="black" stroke-width="4" stroke-linecap="round" stroke-linejoin="round"/>
  <path d="M12 21H18L24 21" stroke="black" stroke-width="4" stroke-linecap="round" stroke-linejoin="round"/>
</svg>
